!!!SOCIAL_FUNCTION:	cheyenne war song
!!!PDT:	1936
!!!OTL: No_8_A_Hard_Road.krn
!!!REG: Oklahoma and Montana
!!!LANG: Tone
!!!LING_GROUP: Algonquin
**kern
*staff1
=1-
*clefG2
*k[b-e-a-]
*M3/4
4b-\
8b-\L
8cc\J
4b-\
=2
8.g/L
16g/Jk
8.f/L
16e-/Jk
8.e-/L
16e-/Jk
=3
2f/
8.r
16e-/
=4
*M2/4
8.e-/L
16g/Jk
8.g/L
16f/Jk
=5
8.g/L
16g/Jk
8.f/L
16e-/Jk
=6
*M3/4
2e-/
8.r
16f/
=7
*M2/4
8.e-/L
16f/Jk
8.e-/L
16f/Jk
=8
*M3/4
12e-/L
12c/
12c/J
12f/L
12f/
12e-/J
8.e-/L
16f/Jk
=9
*M2/4
4e-/
8.e-/L
16e-/Jk
=10
4e-/
8.r
16cc\
=11
=
4b-\
8.b-\L
16cc\Jk
=12
4b-\
8.b-\L
16b-\Jk
=13
4b-\
8.r
16ee-\
=14
*M3/4
4b-\
8.b-\L
16ee-\Jk
4b-\
=15
8.g/L
16g/Jk
8.f/L
16e-/Jk
8.e-/L
16e-/Jk
=16
2f/
8.r
16e-/
=17
*M2/4
8.e-/L
16g/Jk
8.g/L
16f/Jk
=18
4g/
4f/
=19
*M3/4
4e-/
4r
8.r
16f/
=20
*M2/4
8.e-/L
16f/Jk
8.e-/L
16f/Jk
=21
*M3/4
12e-/L
12c/
12c/J
12f/L
12e-/
12e-/J
8.e-/L
16f/Jk
=22
=
*M2/4
4e-/
8.e-/L
16e-/Jk
=23
4e-/
8.r
16cc\
=24:|!
*M2/4
16e-/LK
8.e-/J
8.e-/L
16e-/Jk
=25
4e-/
4r
==
*-
